X: 38912
T: Superfly
R: reel
M: 4/4
K: Bminor
|:Bf ~f2 gfeg|f2 fg fedf|e2 ef edce|ed c/B/A BAFA|
Bf ~f2 gfeg|f2 fg fedf|e2 ef edcd|ed c/B/A B2 BA:|
|:Bcde f2 Bc|defB g2 Bc|defB a2 fa|gfed ed c/B/A|
[1 Bcde f2 Bc|defB g2 Bc|defB a2 Bc|defd gfed:|
[2 Bcde f2 Bc|defB g2 Bc|defB a2 fa|gfed ed c/B/A||

